X: 22764
T: Lane Of Stones, The
R: polka
M: 2/4
K: Gmajor
|:G>A B/A/G|cd e/f/g|d>e dB|cB AF|
G>A B/A/G|cd e/f/g|d>e dB|AF G2:|
|:g>a b/a/g|e/f/g ed|g>a b/a/g|ea a2|
g>a b/a/g|ag e/f/g|d>e dB|AF G2:|

